X:2835
T:Polonäs
T:ur Kumlins notsamling (nr 50)
B:Kumlins notsamling, nr 50
B:http://www.smus.se/earkiv/fmk/browselarge.php?lang=sw&katalogid=Ma+4&bildnr=00021
B:Jämför [[http://www.smus.se/earkiv/fmk/browselarge.php?lang=sw&katalogid=Ma+8&bildnr=00011|SMUS - katalog Ma8 bild 11]] nr 22
B:Jämför [[http://www.smus.se/earkiv/fmk/browselarge.php?lang=sw&katalogid=MMD+20&bildnr=00016|SMUS - katalog MMD20 bild 16]] nr 29 ur [[Notböcker/Johan Anderssons notbok]]
B:Jämför [[http://www.smus.se/earkiv/fmk/browselarge.php?lang=sw&katalogid=Ma+17&bildnr=00010|SMUS - katalog Ma17 bild 10]] nr 15
B:Jämför [[http://www.smus.se/earkiv/fmk/browselarge.php?lang=sw&katalogid=M+149&bildnr=00005|SMUS - katalog M149 bild 5]] nr 5
B:Jämför [[http://www.smus.se/earkiv/fmk/browselarge.php?lang=sw&katalogid=M+154b&bildnr=00068|SMUS - katalog M154b bild 68]] nr 59
B:Jämför EÖ nr 396
B:Jämför [[http://www.sormlandsmusikarkiv.se/noter/schwalbe/schwalbe_notbok_small.pdf|Sörmlands Musikarkiv]] (pdf) nr 15 ur [[Notböcker/Pontus Schwalbes notbok]]
B:Jämför [[http://www.samlingarna.sormlandsspel.se/wp-content/uploads/2013/04/1832.pdf|L-G Andersson/Högbergs notbok]] nr 8 sid 1
B:Jämför [[http://www.samlingarna.sormlandsspel.se/wp-content/uploads/2013/04/ramelius_carl.pdf|Carl Råmelius notbok]] (pdf) nr 15 sid 7
B:Jämför [[http://www.smus.se/earkiv/fmk/browselarge.php?lang=sw&katalogid=Ma+6&bildnr=00149|SMUS - katalog Ma6 bild 149]] efter [[Personer/Petter Dufva]]
B:Jämför [[http://www.smus.se/earkiv/fmk/browselarge.php?lang=sw&katalogid=MMD+60&bildnr=00007|SMUS - katalog MMD60 bild 7]] nr 13 ur [[Notböcker/Olof Larssons notbok]]
O:Närke
R:Slängpolska
Z:Nils Liberg
M:3/4
L:1/16
K:D
D2F2 A2d2 f2a2 | afdf ageg g2f2 | D2F2 A2d2 f2a2 | afdf ageg f4 ::
f2ef g2f2 e2d2 | dcdf edcB A4 | f2a2 gafg e2c2 | dcdf edcB AGFE |
D2F2 A2d2 f2a2 | gece d4 D4 :|
(:musicend:)
(:music:)
